X:130
T:The Haystack Jig
R:jig
C:Bruce Osborne - Feb. 2002
Z:bosborne@kos.net
M:6/8
L:1/8
K:Bb
d/c/|BdB cAF|GEG F2 F/E/|DFB Bcd|dcB c2 d/c/|
BdB cAF|GEG F2 B/c/|dfg fdB|ecA B2:|
|:B/A/|G^FG GAB|FED DEF|BAB Bcd|dcB c2 d/c/|
BdB cAF|GEG F2 B/c/|dfg fdB|ceA B2:|
